X:170
T: Die Mordeltern
N: Q0085L
O: Osteuropa, Tschechoslowakei, Zips
R: Ballade, Habgier, Mord, Reue, Selbstmord
M: 4/4
L: 1/4
K: G
D | GGGA | _BAG
A | _B=FFG | =F_ED
F | _EDCG | =F_ED
_B | AGc_B | A2G

@@@ Tune index: 1225
